!!!!SEGMENT: pl-cz--iii-750_zebrowski-marcin-jozef--sonata-pro-processione.krn
!!!cenid: 17xx:2367
!!!COM: Żebrowski, Marcin Józef
!!!COM-rismID: pe30020322
!!!CDT: 1702-1770/06/29
!!!CNT: Polish
!!!OTL: Sonata pro processione
!!!PDT:
!!!AGN:
!!!SMS-siglum: PL-CZ
!!!SMS-shelfmark: III-750
!!!SMS-shelfwork: W
!!!SMS-variant:
!!!SMS-altvar:
!!!NIFC-rismSourceID: 300033535
!!!NIFC-islandoraID: pl-cz:25454
!!!URL-pdf-islandora: https://repozytorium.nifc.pl/islandora/object/pl-cz%3A25454/datastream/PDF/view
!!!URL-scan: https://polish.musicsources.pl/pl/lokalizacje/galeria/rekopisy/1481 @EN{Scan on Polish Music Sources Website} @PL{Skany w portalu Dziedzictwo Muzyki Polskiej w otwartym dostępie}
!!!ONB-nifc:
!!!AIN: 3 empty 2 violn
!!!key: D
**kern	**dynam	**kern	**kern	**dynam	**kern	**dynam	**kern	**dynam	**kern	**dynam
*part5	*part5	*part5	*part4	*part4	*part3	*part3	*part2	*part2	*part1	*part1
*staff6	*	*staff5	*staff4	*	*staff3	*	*staff2	*	*staff1	*
*Iempty	*	*Iempty	*Ivioln	*	*Ivioln	*	*Iempty	*	*Iempty	*
*I"Organo Solo	*	*I"Organo Solo	*I"Violino Secundo	*	*I"Violino Primo	*	*I"Hoboe. Secundo	*	*I"Hoboe. Primo	*
*I'Org.	*	*I'Org.	*I'Vn II	*	*I'Vn I	*	*I'Ob. 2	*	*I'Ob. 1	*
*ICklav	*	*ICklav	*ICstr	*	*ICstr	*	*ICww	*	*ICww	*
*clefF4	*	*clefC1	*clefG2	*	*clefG2	*	*clefG2	*	*clefG2	*
*ITrd-1c-2	*	*ITrd-1c-2	*	*	*	*	*	*	*	*
*k[f#c#]	*	*k[f#c#]	*k[f#c#]	*	*k[f#c#]	*	*k[f#c#]	*	*k[f#c#]	*
*	*	*	*D:	*	*D:	*	*D:	*	*D:	*
*M3/4	*	*M3/4	*M3/4	*	*M3/4	*	*M3/4	*	*M3/4	*
=1	=1	=1	=1	=1	=1	=1	=1	=1	=1	=1
!	!	!LO:TX:a:i:t=Adagio	!LO:TX:a:i:t=Adagio	!	!LO:TX:a:i:t=Adagio	!	!LO:TX:a:rj:i:t=Adagio	!	!LO:TX:a:i:t=Adagio	!
4D/	.	2.ryy	4r	.	(16dd\KL	.	4r	.	(16dd\KL	.
.	.	.	.	.	8.a\J)	.	.	.	8.a\J)	.
4D/	.	.	(16dd\KL	.	(16ff#\KL	.	(16dd\KL	.	(16ff#\KL	.
.	.	.	8.a\J)	.	8.dd\J)	.	8.a\J)	.	8.dd\J)	.
4D/	.	.	(16ff#\KL	.	(16aa\KL	.	(16ff#\KL	.	(16aa\KL	.
.	.	.	8.dd\J)	.	8.ff#\J)	.	8.dd\J)	.	8.ff#\J)	.
=2	=2	=2	=2	=2	=2	=2	=2	=2	=2	=2
.	.	.	8qqee/	.	8qqgg/	.	8qqee/	.	8qqgg/	.
4AA/	.	2.ryy	4dd\	.	4ff#\	.	4dd\	.	4ff#\	.
8r	.	.	4cc#\	.	4ee\	.	4cc#\	.	4ee\	.
8A|\L	.	.	.	.	.	.	.	.	.	.
8E|\	.	.	4r	.	4r	.	4r	.	4r	.
8D|\J	.	.	.	.	.	.	.	.	.	.
=3	=3	=3	=3	=3	=3	=3	=3	=3	=3	=3
4C#/	.	2.ryy	4r	.	(16ee\KL	.	4r	.	(16ee\KL	.
.	.	.	.	.	8.a\J)	.	.	.	8.a\J)	.
4C#/	.	.	(16ee\KL	.	(16gg\KL	.	(16ee\KL	.	(16gg\KL	.
.	.	.	8.a\J)	.	8.ee\J)	.	8.a\J)	.	8.ee\J)	.
4C#/	.	.	(16gg\KL	.	(16bb\KL	.	(16gg\KL	.	(16bb\KL	.
.	.	.	8.ee\J)	.	8.gg\J)	.	8.ee\J)	.	8.gg\J)	.
=4	=4	=4	=4	=4	=4	=4	=4	=4	=4	=4
.	.	.	8qqff#/	.	8qqaa/	.	8qqff#/	.	.	.
8D/L	.	2.ryy	4eeT\	.	4gg\	.	4eeT\	.	4ggT\	.
8E/	.	.	.	.	.	.	.	.	.	.
8F#/	.	.	4dd\	.	4ff#\	.	4dd\	.	4ff#\	.
8E/	.	.	.	.	.	.	.	.	.	.
8F#/	.	.	4r	.	4r	.	4r	.	4r	.
8D/J	.	.	.	.	.	.	.	.	.	.
=5	=5	=5	=5	=5	=5	=5	=5	=5	=5	=5
*	*	*	*	*	*	*	*2\right	*	*	*
4G\	.	2.ryy	8r	.	16bb\LL	.	2.b\	.	4r	.
.	.	.	.	.	16dd#X\J	.	.	.	.	.
.	.	.	8b\L	.	8.ee\J	.	.	.	.	.
*	*	*	*	*	*	*	*	*	*2\right	*
4GG/	.	.	8b\	.	.	.	.	.	[2ee\	.
.	.	.	.	.	16dd#\KL	.	.	.	.	.
.	.	.	8b\	.	[y8ee\J	.	.	.	.	.
!	!	!	!	!	!LO:N:xstem:cue	!	!	!	!	!
!	!	!	!	!	!LO:TUP:a	!	!	!	!	!
4G\	.	.	8b\	.	24ee\LL]	.	.	.	.	.
.	.	.	.	.	(24gg\	.	.	.	.	.
.	.	.	.	.	24aa\JJ	.	.	.	.	.
!	!	!	!	!	!LO:TUP:a	!	!	!	!	!
.	.	.	8b\J	.	24bb\LL	.	.	.	.	.
.	.	.	.	.	24aa\	.	.	.	.	.
.	.	.	.	.	24gg#X\JJ)	.	.	.	.	.
=6	=6	=6	=6	=6	=6	=6	=6	=6	=6	=6
4F#\	.	2.ryy	8r	.	16aa\LL	.	2.a/	.	8ee\L]	.
.	.	.	.	.	16cc#\J	.	.	.	.	.
.	.	.	8a\L	.	8.ddn\J	.	.	.	8ff#\J	.
.	.	.	.	.	.	.	.	.	8qqee/	.
4FF#/	.	.	8a\	.	.	.	.	.	2dd\	.
.	.	.	.	.	16cc#\KL	.	.	.	.	.
.	.	.	8a\	.	8dd\J	.	.	.	.	.
!	!	!	!	!	!LO:LB:g=original	!	!	!	!	!
4F#\	.	.	8a\	.	(32a\KLL	.	.	.	.	.
.	.	.	.	.	16.cc#\JJ)	.	.	.	.	.
.	.	.	8a\J	.	(32dd\KLL	.	.	.	.	.
.	.	.	.	.	16.ff#\JJ)	.	.	.	.	.
=7	=7	=7	=7	=7	=7	=7	=7	=7	=7	=7
.	.	.	.	.	(16qqff#/LL	.	.	.	.	.
.	.	.	.	.	16qqaa/JJ)	.	.	.	.	.
4C#/	.	2.ryy	4.eeT\	.	4.ggT\	.	4.eeT\	.	4.ggT\	.
4AA/	.	.	.	.	.	.	.	.	.	.
.	.	.	(16dd\LL	.	(16ff#\LL	.	(16dd\LL	.	(16ff#\LL	.
.	.	.	16cc#\JJ	.	16ee\JJ	.	16cc#\JJ	.	16ee\JJ)	.
4D/	.	.	8dd\L)	.	8ff#\L)	.	8dd\L)	.	8ff#\L	.
.	.	.	8dd|\J	.	8ff#|\J	.	8dd|\J	.	8ff#\J	.
!LO:LB:g=original	!	!	!LO:LB:g=original	!	!	!	!LO:LB:g=original	!	!LO:LB:g=original	!
=8	=8	=8	=8	=8	=8	=8	=8	=8	=8	=8
4A\	.	2.ryy	4ddT\	.	4ff#t\	.	4ddT\	.	4ff#t\	.
4AA/	.	.	8cc#|\L	.	8ee|\L	.	8cc#|\L	.	8ee|\L	.
.	.	.	(16a\L	.	(16a\L	.	(16a\L	.	(16a\L	.
.	.	.	16g#X\JJ	.	16b\JJ	.	16g#X\JJ	.	16b\JJ	.
4r	.	.	16a\LL	.	16cc#\LL	.	16a\LL	.	16cc#\LL	.
.	.	.	16b\	.	16dd\	.	16b\	.	16dd\	.
.	.	.	16cc#\)	.	16ee\)	.	16cc#\)	.	16ee\)	.
.	.	.	16dd|\JJ	.	16ff#|\JJ	.	16dd|\JJ	.	16ff#\JJ	.
=9	=9	=9	=9	=9	=9	=9	=9	=9	=9	=9
.	.	.	.	.	16qqff#\LL	.	.	.	.	.
.	.	.	8qqff#/	.	16qqaa\JJ	.	.	.	.	.
4C#/	.	2.ryy	4.ee\	.	4.ggT\	.	4.eeT\	.	4.ggT\	.
4AA/	.	.	.	.	.	.	.	.	.	.
.	.	.	(16dd\LL	.	(16ff#\LL	.	(16dd\LL	.	(16ff#\LL	.
.	.	.	16cc#\JJ	.	16ee\JJ	.	16cc#\JJ	.	16ee\JJ	.
4D/	.	.	8dd\L)	.	8ff#\L)	.	8dd\L)	.	8ff#\L)	.
.	.	.	8dd|\J	.	8ff#|\J	.	8dd|\J	.	8ff#|\J	.
=10	=10	=10	=10	=10	=10	=10	=10	=10	=10	=10
.	.	.	8qqee/	.	.	.	.	.	.	.
4A\	.	2.ryy	4ddT\	.	4ff#t\	.	4ddT\	.	4ff#t\	.
8AA|/L	.	.	4cc#\	.	4ee\	.	4cc#\	.	4ee\	.
8E|/	.	.	.	.	.	.	.	.	.	.
8C#|/	.	.	4cc#\	.	4ee\	.	4cc#\	.	4ee\	.
8AA|/J	.	.	.	.	.	.	.	.	.	.
=11	=11	=11	=11	=11	=11	=11	=11	=11	=11	=11
4D/	.	2.ryy	(16dd\LL	.	(16ff#\LL	.	(16dd\LL	.	(16ff#\LL	.
.	.	.	16ff#\J)	.	16aa\J)	.	16ff#\J)	.	16aa\J)	.
.	.	.	8ff#|\J	.	8aa|\J	.	8ff#|\J	.	8aa|\J	.
4C#/	.	.	8r	.	(16a\LL	.	8r	.	(16a\LL	.
.	.	.	.	.	16b\	.	.	.	16b\	.
.	.	.	(16a\LL	.	16cc#\	.	(16a\LL	.	16cc#\	.
.	.	.	16b\JJ	.	16dd\JJ	.	16b\JJ	.	16dd\JJ	.
4AA/	.	.	16cc#\LL	.	16ee\LL	.	16cc#\LL	.	16ee\LL	.
.	.	.	16dd\	.	16ff#\	.	16dd\	.	16ff#\	.
.	.	.	16ee\)	.	16gg\)	.	16ee\)	.	16gg\)	.
.	.	.	16cc#|\JJ	.	16ee|\JJ	.	16cc#|\JJ	.	16ee|\JJ	.
!	!	!	!	!	!LO:LB:g=original	!	!	!	!	!
=12	=12	=12	=12	=12	=12	=12	=12	=12	=12	=12
4D/	.	2.ryy	(16dd\LL	.	(16ff#\LL	.	(16dd\LL	.	(16ff#\LL	.
.	.	.	16ff#\J)	.	16aa\J)	.	16ff#\J)	.	16aa\J)	.
.	.	.	8ff#|\J	.	8aa|\J	.	8ff#|\J	.	8aa|\J	.
4C#/	.	.	8r	.	(16a\LL	.	8r	.	(16a\LL	.
.	.	.	.	.	16b\	.	.	.	16b\	.
.	.	.	(16a\LL	.	16cc#\	.	(16a\LL	.	16cc#\	.
.	.	.	16b\JJ	.	16dd\JJ	.	16b\JJ	.	16dd\JJ	.
4AA/	.	.	16cc#\LL	.	16ee\LL	.	16cc#\LL	.	16ee\LL	.
.	.	.	16dd\	.	16ff#\	.	16dd\	.	16ff#\	.
.	.	.	16ee\)	.	16gg\)	.	16ee\)	.	16gg\)	.
.	.	.	16cc#|\JJ	.	16ee|\JJ	.	16cc#|\JJ	.	16ee|\JJ	.
!	!	!	!	!	!	!	!LO:LB:g=original	!	!LO:LB:g=original	!
=13	=13	=13	=13	=13	=13	=13	=13	=13	=13	=13
!	!	!	!	!	!LO:TUP:a:problem:klamra łukowa	!	!	!	!LO:TUP:a:problem:klamra łukowa	!
8D\L	.	2.ryy	8dd\L	.	24ff#\LL	.	8dd\L	.	24ff#\LL	.
.	.	.	.	.	24ee\	.	.	.	24ee\	.
.	.	.	.	.	24ff#\JJ	.	.	.	24ff#\JJ)	.
!	!	!	!	!	!LO:TUP:a:problem:klamra łukowa	!	!	!	!LO:TUP:a:problem:klamra łukowa	!
8G\J	.	.	8b\J	.	24gg\LL	.	8b\J	.	24gg\LL	.
.	.	.	.	.	24ff#\	.	.	.	24ff#\	.
.	.	.	.	.	24ee\JJ	.	.	.	24ee\JJ	.
.	.	.	.	.	8qqff#/	.	.	.	.	.
*	*	*	*2\right	*	*2\right	*	*	*	*	*
4A\	.	.	2cc#t\	.	2eeT\	.	2cc#t\	.	2eeT\	.
4AA/	.	.	.	.	.	.	.	.	.	.
=14	=14	=14	=14	=14	=14	=14	=14	=14	=14	=14
!	!LO:DY:a	!	!	!	!	!	!LO:TX:a:t=3	!	!LO:TX:a:t=3	!
4D/	p	2.ryy	(16dd\LL	.	(16ff#\LL	.	1.r	.	1.r	.
.	.	.	16ff#\J)	.	16aa\J)	.	.	.	.	.
.	.	.	8ff#|\J	.	8aa|\J	.	.	.	.	.
4C#/	.	.	8r	.	(16a\LL	.	.	.	.	.
.	.	.	.	.	16b\	.	.	.	.	.
.	.	.	(16a\LL	.	16cc#\	.	.	.	.	.
.	.	.	16b\JJ	.	16dd\JJ	.	.	.	.	.
4AA/	.	.	16cc#\LL	.	16ee\LL	.	.	.	.	.
.	.	.	16dd\	.	16ff#\	.	.	.	.	.
.	.	.	16ee\)	.	16gg\)	.	.	.	.	.
.	.	.	16cc#|\JJ	.	16ee|\JJ	.	.	.	.	.
!	!	!	!	!	!LO:LB:g=original	!	!	!	!	!
=15	=15	=15	=15	=15	=15	=15	=15	=15	=15	=15
4D/	.	2.ryy	(16dd\LL	.	(16ff#\LL	.	.	.	.	.
.	.	.	16ff#\J)	.	16aa\J)	.	.	.	.	.
.	.	.	8ff#|\J	.	8aa|\J	.	.	.	.	.
4C#/	.	.	8r	.	(16a\LL	.	.	.	.	.
.	.	.	.	.	16b\	.	.	.	.	.
.	.	.	(16a\LL	.	16cc#\	.	.	.	.	.
.	.	.	16b\JJ	.	16dd\JJ	.	.	.	.	.
4AA/	.	.	16cc#\LL	.	16ee\LL	.	.	.	.	.
.	.	.	16dd\	.	16ff#\	.	.	.	.	.
.	.	.	16ee\)	.	16gg\)	.	.	.	.	.
.	.	.	16cc#|\JJ	.	16ee|\JJ	.	.	.	.	.
!LO:LB:g=original	!	!	!	!	!	!	!	!	!	!
=16	=16	=16	=16	=16	=16	=16	=16	=16	=16	=16
!	!	!	!LO:TUP:a:problem:klamra łukow	!	!LO:TUP:a	!	!	!	!	!
8D\L	.	2.ryy	24dd\LL	.	(24ff#\LL	.	2.r	.	2.r	.
.	.	.	24cc#\	.	24ee\	.	.	.	.	.
.	.	.	24dd\JJ	.	24ff#\JJ	.	.	.	.	.
!	!	!	!	!	!LO:TUP:a	!	!	!	!	!
8G\J	.	.	16ee\LL	.	24gg\LL	.	.	.	.	.
.	.	.	.	.	24ff#\	.	.	.	.	.
.	.	.	16b\JJ	.	.	.	.	.	.	.
.	.	.	.	.	24ee\JJ)	.	.	.	.	.
.	.	.	.	.	16qqff#/LL	.	.	.	.	.
.	.	.	.	.	16qqgg/JJ	.	.	.	.	.
4A\	.	.	2cc#t\	.	2eeT\	.	.	.	.	.
4AA/	.	.	.	.	.	.	.	.	.	.
=17	=17	=17	=17	=17	=17	=17	=17	=17	=17	=17
.	.	.	.	.	8qqee/	f	.	.	.	.
!	!LO:DY:a	!	!	!LO:DY:a	!	!	!	!	!	!
8D\L	f	2.ryy	8dd\	f	2.dd\	.	8r	.	2.dd\	.
8G\	.	.	4b\	.	.	.	4b/	.	.	.
8G\	.	.	.	.	.	.	.	.	.	.
8F#\	.	.	4a\	.	.	.	4a/	.	.	.
8F#\	.	.	.	.	.	.	.	.	.	.
8E\J	.	.	8g/	.	.	.	8g/	.	.	.
!	!	!	!	!	!LO:LB:g=original	!	!	!	!	!
=18	=18	=18	=18	=18	=18	=18	=18	=18	=18	=18
!	!LO:DY:a	!	!	!	!	!	!	!	!	!
4D/	p	2.ryy	8f#/	.	8dd\	.	8f#/	.	4dd\	.
!	!	!	!	!	!	!LO:DY:a	!	!	!	!
.	.	.	4g/	p	4b\	p	8r	.	.	.
4D/	.	.	.	.	.	.	4r	.	4r	.
.	.	.	4f#/	.	4a/	.	.	.	.	.
4D/	.	.	.	.	.	.	4r	.	4r	.
.	.	.	8e/	.	8g/	.	.	.	.	.
!	!	!	!LO:LB:g=original	!	!	!	!	!	!	!
=19	=19	=19	=19	=19	=19	=19	=19	=19	=19	=19
!	!	!	!	!LO:DY:a	!	!	!	!	!	!
4D/	.	2.ryy	8d/	f	8f#/	.	8r	.	8r	.
.	.	.	4G/	.	4B/	.	4g/	.	4b/	.
4D/	.	.	.	.	.	.	.	.	.	.
!	!	!	!	!	!	!LO:DY:a	!	!	!	!
.	.	.	4f#/	.	4A/	f	4f#/	.	4a/	.
4D/	.	.	.	.	.	.	.	.	.	.
.	.	.	8e/	.	8G/	.	8e/	.	8g/	.
=20	=20	=20	=20	=20	=20	=20	=20	=20	=20	=20
2D/	.	2.ryy	(4e/	.	(4G/	.	(4e/	.	(4g/	.
.	.	.	4d/)	.	4f#/)	.	4d/)	.	4f#/)	.
4r	.	.	4r	.	4r	.	4r	.	4r	.
=21	=21	=21	=21	=21	=21	=21	=21	=21	=21	=21
!	!	!	!LO:TX:a:t=4	!	!LO:TX:a:t=4	!	!LO:TX:a:t=4	!	!	!
4D/	.	(16dd\KL	0.r	.	0.r	.	0.r	.	4r	.
.	.	8.a\J)	.	.	.	.	.	.	.	.
4DD/	.	(16ff#\KL	.	.	.	.	.	.	(16dd\KL	.
.	.	8.dd\J)	.	.	.	.	.	.	8.a\J)	.
4D/	.	16aa\KL	.	.	.	.	.	.	(16ff#\KL	.
.	.	8.ff#\J	.	.	.	.	.	.	8.dd\J)	.
=22	=22	=22	=22	=22	=22	=22	=22	=22	=22	=22
.	.	8qqgg/	.	.	.	.	.	.	8qqee/	.
4r	.	4ff#\	.	.	.	.	.	.	4dd\	.
8A|/L	.	4ee\	.	.	.	.	.	.	4cc#\	.
8E|/	.	.	.	.	.	.	.	.	.	.
8C#|/	.	4r	.	.	.	.	.	.	4r	.
8AA|/J	.	.	.	.	.	.	.	.	.	.
!LO:LB:g=original	!	!	!	!	!	!	!	!	!LO:LB:g=original	!
=23	=23	=23	=23	=23	=23	=23	=23	=23	=23	=23
4C#/	.	(16ee\KL	.	.	.	.	.	.	4r	.
.	.	8.a\J)	.	.	.	.	.	.	.	.
4r	.	(16gg\KL	.	.	.	.	.	.	(16ee\KL	.
.	.	8.ee\J)	.	.	.	.	.	.	8.a\J)	.
4C#/	.	(16bb\KL	.	.	.	.	.	.	(16gg\KL	.
.	.	8.gg\J)	.	.	.	.	.	.	8.ee\J)	.
=24	=24	=24	=24	=24	=24	=24	=24	=24	=24	=24
.	.	8qqaa/	.	.	.	.	.	.	8qqff#/	.
4r	.	4gg\	.	.	.	.	.	.	4ee\	.
8d|\L	.	4ff#\	.	.	.	.	.	.	4dd\	.
8A|\	.	.	.	.	.	.	.	.	.	.
8F#|\	.	4r	.	.	.	.	.	.	4r	.
8D|\J	.	.	.	.	.	.	.	.	.	.
=25	=25	=25	=25	=25	=25	=25	=25	=25	=25	=25
!	!	!	!	!LO:DY:a	!	!	!	!LO:DY:a	!	!
4G\	.	16bb\LL	4g/	p	4g/	.	2.b\	p	4r	.
.	.	16gg\J	.	.	.	.	.	.	.	.
.	.	8qqff#/	.	.	.	.	.	.	.	.
.	.	8ee\J	.	.	.	.	.	.	.	.
4GG/	.	16ee\LL	4G/	.	4G/	.	.	.	[2ee\	.
.	.	16dd#X\	.	.	.	.	.	.	.	.
.	.	16ee\	.	.	.	.	.	.	.	.
.	.	16ff#\JJ	.	.	.	.	.	.	.	.
4G\	.	16gg\LL	4g/	.	4g/	.	.	.	.	.
.	.	16bb\	.	.	.	.	.	.	.	.
.	.	16aa\	.	.	.	.	.	.	.	.
.	.	16gg\JJ	.	.	.	.	.	.	.	.
!	!	!	!	!	!	!	!LO:LB:g=original	!	!	!
=26	=26	=26	=26	=26	=26	=26	=26	=26	=26	=26
4F#\	.	16aa\LL	4f#/	.	4f#/	.	[2.a/	.	8ee\L]	.
.	.	16ff#\J	.	.	.	.	.	.	.	.
.	.	8qqee/	.	.	.	.	.	.	.	.
.	.	8dd\J	.	.	.	.	.	.	8ff#\J	.
.	.	.	.	.	.	.	.	.	8qqee/	.
4FF#/	.	16dd\LL	4f#/	.	4f#/	.	.	.	2dd\	.
.	.	16a\	.	.	.	.	.	.	.	.
.	.	16dd\	.	.	.	.	.	.	.	.
.	.	16ee\JJ	.	.	.	.	.	.	.	.
4F#\	.	16ff#\LL	4f#/	.	4f#/	.	.	.	.	.
.	.	16aa\	.	.	.	.	.	.	.	.
.	.	16gg\	.	.	.	.	.	.	.	.
.	.	16ff#\JJ	.	.	.	.	.	.	.	.
=27	=27	=27	=27	=27	=27	=27	=27	=27	=27	=27
4C#/	.	4.ggT\	4c#/	.	4c#/	.	2.a/]	.	4.eeT\	.
4AA/	.	.	4A/	.	4A/	.	.	.	.	.
.	.	16ff#\LL	.	.	.	.	.	.	(16dd\LL	.
.	.	16aa\JJ	.	.	.	.	.	.	16cc#\JJ	.
4D/	.	8ff#\L	4d/	.	4d/	.	.	.	8dd\L)	.
.	.	8ff#\J	.	.	.	.	.	.	8dd|\J	.
!LO:LB:g=original	!	!	!	!	!	!	!	!	!	!
=28	=28	=28	=28	=28	=28	=28	=28	=28	=28	=28
4A\	.	4ff#t\	4a/	.	4a/	.	[2.aT/	.	4ddT\	.
4AA/	.	8ee\L	4A/	.	4A/	.	.	.	4cc#\	.
.	.	8a\J	.	.	.	.	.	.	.	.
4r	.	(16ee\LL	4r	.	4r	.	.	.	(16cc#\LL	.
.	.	16gg\)	.	.	.	.	.	.	16ee\)	.
.	.	(16ff#\	.	.	.	.	.	.	(16dd\	.
.	.	16aa\JJ)	.	.	.	.	.	.	16ff#\JJ)	.
=29	=29	=29	=29	=29	=29	=29	=29	=29	=29	=29
.	.	8qqaa/	.	.	.	.	.	.	.	.
4C#/	.	4.gg\	4c#/	.	4c#/	.	2.a/]	.	4.eeT\	.
4AA/	.	.	4A/	.	4A/	.	.	.	.	.
.	.	16ff#\LL	.	.	.	.	.	.	(16dd\LL	.
.	.	16ee\JJ	.	.	.	.	.	.	16cc#\JJ	.
4D/	.	8ff#\L	4d/	.	4d/	.	.	.	8dd\L)	.
.	.	8ff#\J	.	.	.	.	.	.	8dd|\J	.
!	!	!	!	!	!	!	!	!	!LO:LB:g=original	!
=30	=30	=30	=30	=30	=30	=30	=30	=30	=30	=30
.	.	8qqgg/	.	.	.	.	.	.	8qqee/	.
4r	.	16ff#\LL	4a/	.	4a/	.	2a/	.	4dd\	.
.	.	16dd\	.	.	.	.	.	.	.	.
.	.	16aa\	.	.	.	.	.	.	.	.
.	.	16ff#\JJ	.	.	.	.	.	.	.	.
.	.	8qqff#/	.	.	.	.	.	.	.	.
4AA/	.	4ee\	4A/	.	4A/	.	.	.	4cc#\	.
4BB/	.	4r	4r	.	4r	.	4r	.	4r	.
!	!	!	!LO:LB:g=original	!	!LO:LB:g=original	!	!	!	!	!
=31	=31	=31	=31	=31	=31	=31	=31	=31	=31	=31
!	!	!	!	!	!	!	!LO:TX:a:t=6	!	!LO:TX:a:t=6	!
4C#/	.	16ee\LL	8e|/L	.	(8a#X'\L	.	0.r	.	0.r	.
.	.	16dd\J	.	.	.	.	.	.	.	.
.	.	8qqff#/	.	.	.	.	.	.	.	.
.	.	8ee\J	(8e'/	.	8a#'\	.	.	.	.	.
4C#/	.	16ee\LL	8e'/	.	8a#'\	.	.	.	.	.
.	.	16ff#\	.	.	.	.	.	.	.	.
.	.	16gg\	8e'/	.	8a#'\	.	.	.	.	.
.	.	16aa\JJ	.	.	.	.	.	.	.	.
4C#/	.	16bb\LL	8e'/	.	8a#'\	.	.	.	.	.
.	.	16gg\	.	.	.	.	.	.	.	.
.	.	16ff#\	8e'/J)	.	8a#'\J)	.	.	.	.	.
.	.	16ee\JJ	.	.	.	.	.	.	.	.
=32	=32	=32	=32	=32	=32	=32	=32	=32	=32	=32
!	!	!LO:TUP:a:problem:klamra łukowa	!LO:TX:t=P:problem:mixed beam	!	!	!	!	!	!	!
4D/	.	12ff#\L	(16f#/LL	.	(16a\LL	.	.	.	.	.
.	.	.	16ff#\)	mf	16aa\)	.	.	.	.	.
.	.	12ee\	.	.	.	.	.	.	.	.
.	.	.	(16ff#\	.	(16aa\	.	.	.	.	.
.	.	12dd\J	.	.	.	.	.	.	.	.
.	.	.	16dd\JJ)	.	16ff#\JJ)	mf	.	.	.	.
4D/	.	4dd\	(16dd\LL	.	(16ff#\LL	.	.	.	.	.
.	.	.	16ff#\)	.	16aa\)	.	.	.	.	.
.	.	.	(16ff#\	.	16aa\	.	.	.	.	.
.	.	.	16dd\JJ)	.	16ff#\JJ	.	.	.	.	.
4D/	.	4r	(16dd\LL	.	(16ff#\LL	.	.	.	.	.
.	.	.	16a\)	.	16dd\)	.	.	.	.	.
.	.	.	(16a\	.	(16dd\	.	.	.	.	.
.	.	.	16f#\JJ)	.	16a#X\JJ)	.	.	.	.	.
!	!	!LO:LB:g=original	!	!	!	!	!	!	!	!
=33	=33	=33	=33	=33	=33	=33	=33	=33	=33	=33
4D#X/	.	16ff#\LL	8f#|/L	.	8b'|\L	.	.	.	.	.
.	.	16ee\J	.	.	.	.	.	.	.	.
.	.	8qqgg/	.	.	.	.	.	.	.	.
.	.	8ff#\J	(8f#'/	.	(8b'\	p	.	.	.	.
4D#/	.	16ff#\LL	8f#'/	.	8b'\	.	.	.	.	.
.	.	16gg#X\	.	.	.	.	.	.	.	.
.	.	16aa\	8f#'/	.	8b'\	.	.	.	.	.
.	.	16bb\JJ	.	.	.	.	.	.	.	.
4D#/	.	16ccc#\LL	8f#'/	.	8b'\	.	.	.	.	.
.	.	16aa\	.	.	.	.	.	.	.	.
.	.	16gg#X\	8f#'/J)	.	8b'\J)	.	.	.	.	.
.	.	16ff#\JJ	.	.	.	.	.	.	.	.
=34	=34	=34	=34	=34	=34	=34	=34	=34	=34	=34
!	!	!LO:TUP:a:problem:klamra łukowa	!	!	!	!	!	!	!	!
4E/	.	12gg#X\L	(16g#X\LL	mf	(16b\LL	.	.	.	.	.
.	.	.	16ee\)	.	16gg#X\)	mf	.	.	.	.
.	.	12ff#\	.	.	.	.	.	.	.	.
.	.	.	(16ee\	.	(16gg#\	.	.	.	.	.
.	.	12ee\J	.	.	.	.	.	.	.	.
.	.	.	16b\JJ)	.	16ee\JJ)	.	.	.	.	.
4E/	.	4ee\	(16b\LL	.	(16ee\LL	.	.	.	.	.
.	.	.	16ee\)	.	16gg#\)	.	.	.	.	.
.	.	.	(16ee\	.	(16gg#\	.	.	.	.	.
.	.	.	16b\JJ)	.	16ee\JJ)	.	.	.	.	.
4E/	.	4r	(16b\LL	.	(16ee\LL	.	.	.	.	.
.	.	.	16g#X\)	.	16b\)	.	.	.	.	.
.	.	.	(16g#\	.	(16b\	.	.	.	.	.
.	.	.	16d\JJ)	.	16g#X\JJ)	.	.	.	.	.
=35	=35	=35	=35	=35	=35	=35	=35	=35	=35	=35
4A\	.	2.ryy	(16c#/LL	.	16e\LL	p	1.r	.	1.r	.
.	.	.	16a/J)	.	16cc#\J	.	.	.	.	.
.	.	.	8qqb/	.	8qqdd/	f	.	.	.	.
.	.	.	8a/J	.	8cc#\J	.	.	.	.	.
4r	.	.	(16a/LL	.	(16cc#\LL	.	.	.	.	.
.	.	.	16g#X/	.	16b\	.	.	.	.	.
.	.	.	16f#/	.	16a\	.	.	.	.	.
.	.	.	16e/JJ)	.	16g#X\JJ	.	.	.	.	.
!	!	!	!LO:LB:g=original	!	!	!	!	!	!	!
4AA/	.	.	8d/L	.	8f#/L)	.	.	.	.	.
.	.	.	8c#/J	.	8e|/J	.	.	.	.	.
!	!	!	!	!	!LO:LB:g=original	!	!	!	!	!
=36	=36	=36	=36	=36	=36	=36	=36	=36	=36	=36
!	!	!	!	!	!LO:TX:t=P:problem:mixed beam	!	!	!	!	!
4E\	.	2.ryy	(16B/LL	.	(16d/LL	.	.	.	.	.
.	.	.	16g#X/J)	.	16b\J)	.	.	.	.	.
.	.	.	8qqa/	.	8qqcc#/	.	.	.	.	.
.	.	.	8g#/J	.	8b\J	.	.	.	.	.
4r	.	.	(16g#/LL	.	((16b\LL	.	.	.	.	.
.	.	.	16f#/	.	16a\	.	.	.	.	.
.	.	.	16e/	.	16g#X\)	.	.	.	.	.
.	.	.	16d/JJ)	.	16f#\JJ	.	.	.	.	.
4EE/	.	.	8c#/L	.	8e/L)	.	.	.	.	.
.	.	.	8B|/J	.	8d|/J	.	.	.	.	.
=37	=37	=37	=37	=37	=37	=37	=37	=37	=37	=37
!	!	!	!	!	!	!	!	!	!LO:TX:b:i:t=Solo	!
4AA/	.	2.ryy	4A/	.	4c#/	.	(16cc#\LL	.	(16ee\LL	.
.	.	.	.	.	.	.	16aa\J)	.	16ccc#\J)	.
!	!	!	!	!	!	!	!LO:TX:b:i:t=Solo	!	!	!
.	.	.	.	.	.	.	8aa\J	.	8ccc#|\J	.
4r	.	.	4r	.	4r	.	16aa\LL	.	(16ccc#\LL	.
.	.	.	.	.	.	.	16gg#X\	.	16bb\	.
.	.	.	.	.	.	.	16ff#\	.	16aa\	.
.	.	.	.	.	.	.	16ee\JJ	.	16gg#X\JJ	.
4r	.	.	4A/	.	4A/	p	8dd\L	.	8ff#\L)	.
.	.	.	.	.	.	.	8cc#\J	.	8ee|\J	.
=38	=38	=38	=38	=38	=38	=38	=38	=38	=38	=38
*	*	*2\right	*	*	*	*	*	*	*	*
4D/	.	2.ee\	4e/	.	4e/	.	(16b\LL	.	(16dd\LL	.
.	.	.	.	.	.	.	16gg#X\J)	.	16bb\J)	.
.	.	.	.	.	.	.	8gg#\J	.	8bb|\J	.
4r	.	.	4r	.	4r	.	(16gg#\LL	.	16bb\LL	.
.	.	.	.	.	.	.	16ff#\	.	16aa\	.
.	.	.	.	.	.	.	16ee\	.	16gg#X\	.
.	.	.	.	.	.	.	16dd\JJ	.	16ff#\JJ	.
4D/	.	.	4e/	.	4e/	.	8cc#\L)	.	8ee\L	.
.	.	.	.	.	.	.	8b|\J	.	8dd\J	.
!LO:LB:g=original	!	!	!	!	!	!	!LO:LB:g=original	!	!	!
=39	=39	=39	=39	=39	=39	=39	=39	=39	=39	=39
.	.	.	.	.	.	.	8qqb/	.	8qqdd/	.
4AA/	.	8ee\L	4A/	.	4A/	.	4a/	.	4cc#\	.
.	.	16ff#\L	.	.	.	.	.	.	.	.
.	.	16gg#X\JJ	.	.	.	.	.	.	.	.
4r	.	16aa\LL	4r	.	4r	.	4r	.	4r	.
.	.	16gg#\	.	.	.	.	.	.	.	.
.	.	16aa\	.	.	.	.	.	.	.	.
.	.	16bb\JJ	.	.	.	.	.	.	.	.
4r	.	16ccc#\LL	4r	.	4r	.	4r	.	4r	.
.	.	16bb\	.	.	.	.	.	.	.	.
.	.	16ccc#\	.	.	.	.	.	.	.	.
.	.	16ddd\JJ	.	.	.	.	.	.	.	.
=40	=40	=40	=40	=40	=40	=40	=40	=40	=40	=40
.	.	16qqdd/LL	.	.	.	.	.	.	.	.
.	.	16qqff#/JJ	.	.	.	.	.	.	.	.
!	!	!	!	!	!	!	!LO:TX:a:t=2	!	!LO:TX:a:t=2	!
8B\L	.	2eeT\	8r	.	8r	.	1.r	.	1.r	.
8A\	.	.	8a/L	.	8cc#\L	.	.	.	.	.
!LO:TX:t=P:problem: # above	!	!	!	!	!	!	!	!	!	!
8G#X\	.	.	8g#X/	.	8b\	.	.	.	.	.
8E\	.	.	8e/	.	8g#X\	.	.	.	.	.
8F#\	.	4ddd\	8f#/	.	8a\	.	.	.	.	.
8G#\J	.	.	8g#/J	.	8b\J	.	.	.	.	.
=41	=41	=41	=41	=41	=41	=41	=41	=41	=41	=41
!	!	!LO:TUP:a:problem:klamra łukowa	!	!	!	!	!	!	!	!
8A\L	.	12ccc#\L	8a/L	.	8a/L	.	.	.	.	.
.	.	12bb\	.	.	.	.	.	.	.	.
8D\J	.	.	8d/J	.	8d/J	.	.	.	.	.
.	.	12aa\J	.	.	.	.	.	.	.	.
.	.	8qqccc#/	.	.	.	.	.	.	.	.
4E\	.	2bbT\	4e/	.	4e/	.	.	.	.	.
4EE/	.	.	4e/	.	4e/	.	.	.	.	.
!	!	!	!LO:LB:g=original	!	!	!	!	!	!	!
=42	=42	=42	=42	=42	=42	=42	=42	=42	=42	=42
!	!	!	!	!	!	!	!	!	!LO:TX:a:i:t=Tutti	!
4AA/	.	2aa\	4r	.	(16a/KL	.	4r	.	(16a/KL	.
.	.	.	.	.	8.e/J)	.	.	.	8.e/J)	.
4AA/	.	.	(16a/KL	f	(16cc#\KL	.	(16a/KL	.	(16cc#/KL	.
.	.	.	8.e/J)	.	8.a\J)	.	8.e/J)	.	8.a/J)	.
!	!	!	!	!	!	!	!	!	!LO:LB:g=original	!
4AA/	.	4r	(16cc#/KL	.	(16ee\KL	.	(16cc#/KL	.	(16ee\KL	.
.	.	.	8.a/J)	.	8.cc#\J)	.	8.a/J)	.	8.cc#\J)	.
=43	=43	=43	=43	=43	=43	=43	=43	=43	=43	=43
.	.	.	8qqb/	.	8qqdd/	.	8qqb/	.	8qqdd/	.
4EE/	.	2.ryy	4a/	.	4cc#\	.	4a/	.	4cc#\	.
8r	.	.	4g#X/	.	4b\	.	4g#X/	.	4b\	.
8E/L	.	.	.	.	.	.	.	.	.	.
8BB/	.	.	4r	.	4r	.	4r	.	4r	.
8AA/J	.	.	.	.	.	.	.	.	.	.
!	!	!	!	!	!LO:LB:g=original	!	!	!	!	!
=44	=44	=44	=44	=44	=44	=44	=44	=44	=44	=44
4GG#X/	.	2.ryy	4r	.	(16b\KL	.	4r	.	(16a/KL	.
.	.	.	.	.	8.e\J)	.	.	.	8.e/J)	.
4GG#/	.	.	(16b\KL	.	(16dd\KL	.	(16b\KL	.	(16dd\KL	.
.	.	.	8.e\J)	.	8.b\J)	.	8.e\J)	.	8.b\J)	.
4GG#/	.	.	(16dd\KL	.	(16ff#\KL	.	(16dd\KL	.	(16ff#\KL	.
.	.	.	8.b\J)	.	8.dd\J)	.	8.b\J)	.	8.dd\J)	.
!LO:PB:g=original	!	!	!	!	!	!	!	!	!	!
=45	=45	=45	=45	=45	=45	=45	=45	=45	=45	=45
.	.	.	8qqcc#/	.	8qqee/	.	8qqcc#/	.	8qqee/	.
8AA/L	.	2.ryy	(4b\	.	(4dd\	.	(4b\	.	(4dd\	.
8BB/	.	.	.	.	.	.	.	.	.	.
8C#/	.	.	4a/)	.	4cc#\)	.	4a/)	.	4cc#\)	.
8D/J	.	.	.	.	.	.	.	.	.	.
8E/L	.	.	4g#X/	.	4b|\	.	4g#X/	.	4b\	.
8EE/J	.	.	.	.	.	.	.	.	.	.
=46	=46	=46	=46	=46	=46	=46	=46	=46	=46	=46
4A\	.	2.ryy	(16a\LL	.	(16cc#\LL	.	(16a\LL	.	(16cc#\LL	.
.	.	.	16cc#\J)	.	16ee\J)	.	16cc#\J)	.	16ee\J)	.
.	.	.	8cc#|\J	.	8ee|\J	.	8cc#\J	.	8ee|\J	.
!	!	!	!	!	!	!	!LO:LB:g=original	!	!	!
4G#X\	.	.	8r	.	(16e/LL	.	8r	.	16e/LL	.
.	.	.	.	.	16f#/	.	.	.	16f#/	.
.	.	.	(16e/LL	.	16g#X/	.	16e/LL	.	16g#X/	.
.	.	.	16f#/JJ	.	16a/JJ	.	16f#/JJ	.	16a/JJ	.
4E\	.	.	16g#X/LL	.	16b\LL	.	16g#X/LL	.	16b\LL	.
.	.	.	16a/	.	16cc#\	.	16a/	.	16cc#\	.
.	.	.	16b/)	.	16dd\)	.	16b/	.	16dd\	.
.	.	.	16g#X|/JJ	.	16b|\JJ	.	16g#/JJ	.	16b\JJ	.
=47	=47	=47	=47	=47	=47	=47	=47	=47	=47	=47
!	!	!	!	!	!	!	!LO:TX:a:t=1	!	!LO:TX:a:t=1	!
4A\	.	2.ryy	(16a\LL	.	(16cc#\LL	.	2.r	.	2.r	.
.	.	.	16cc#\J)	.	16ee\J)	.	.	.	.	.
.	.	.	8cc#|\J	.	8ee|\J	p	.	.	.	.
4G#X\	.	.	8r	.	(16e/LL	.	.	.	.	.
.	.	.	.	.	16f#/	.	.	.	.	.
.	.	.	(16e/LL	.	16g#X/	.	.	.	.	.
.	.	.	16f#/JJ	.	16a/JJ	.	.	.	.	.
4E\	.	.	16g#X/LL	.	16b\LL	.	.	.	.	.
.	.	.	16a/	.	16cc#\	.	.	.	.	.
.	.	.	16b/)	.	16dd\)	.	.	.	.	.
.	.	.	16g#X|/JJ	.	16b|\JJ	.	.	.	.	.
!	!	!	!LO:LB:g=original	!	!	!	!	!	!	!
=48	=48	=48	=48	=48	=48	=48	=48	=48	=48	=48
!	!	!	!	!	!LO:TUP:a	!	!	!	!LO:TUP:a:problem:klamra łukowa	!
8AA/L	.	2.ryy	8a/L	.	(24cc#\LL	.	8a/L	.	24cc#\LL	.
.	.	.	.	.	24b\	.	.	.	24b\	.
.	.	.	.	.	24cc#\JJ	f	.	.	24cc#\JJ	.
!	!	!	!	!	!LO:TUP:a	!	!	!	!LO:TUP:a:problem:klamra łukowa	!
8D/J	.	.	16b/L	.	24dd\LL	.	16b/L	.	24dd\LL	.
.	.	.	.	.	24cc#\	.	.	.	24cc#\	.
.	.	.	16f#/JJ	.	.	.	16f#/JJ	.	.	.
.	.	.	.	.	24b\JJ)	.	.	.	24b\JJ	.
.	.	.	.	.	8qqcc#/	.	.	.	8qqcc#/	.
4E/	.	.	2g#Xt/	.	2bT\	.	2g#Xt/	.	2bT\	.
4EE/	.	.	.	.	.	.	.	.	.	.
!	!	!	!	!	!	!	!	!	!LO:LB:g=original	!
=49	=49	=49	=49	=49	=49	=49	=49	=49	=49	=49
.	.	.	.	.	8qqa/	.	.	.	8qqa/	.
8AA/L	.	2.ryy	8a/	.	[2.aa\	.	8a/	.	2.aa\	.
8D/	.	.	4ff#\	.	.	.	4ff#\	.	.	.
8D/	.	.	.	.	.	.	.	.	.	.
8C#/	.	.	4ee\	.	.	.	4ee\	.	.	.
8C#/	.	.	.	.	.	.	.	.	.	.
8BB/J	.	.	8dd\	.	.	.	8dd\	.	.	.
!	!	!	!	!	!LO:LB:g=original	!	!	!	!	!
=50	=50	=50	=50	=50	=50	=50	=50	=50	=50	=50
4AA/	.	2.ryy	8cc#\	.	8aa\]	p	8cc#\	.	4aa\	.
.	.	.	4dd\	p	4ff#\	.	8r	.	.	.
4AA/	.	.	.	.	.	.	4r	.	4r	.
.	.	.	4cc#\	.	4ee\	.	.	.	.	.
4AA/	.	.	.	.	.	.	4r	.	4r	.
.	.	.	8b\	.	8dd\	.	.	.	.	.
=51	=51	=51	=51	=51	=51	=51	=51	=51	=51	=51
4AA/	.	2.ryy	8a/	.	8cc#\	.	8r	.	8r	.
.	.	.	4d/	f	4f#/	f	4dd\	.	4ff#\	.
4AA/	.	.	.	.	.	.	.	.	.	.
.	.	.	4c#/	.	4e/	.	4cc#\	.	4ee\	.
4AA/	.	.	.	.	.	.	.	.	.	.
.	.	.	8B/	.	8d/	.	8b\	.	8dd\	.
!LO:LB:g=original	!	!	!	!	!	!	!	!	!	!
=52	=52	=52	=52	=52	=52	=52	=52	=52	=52	=52
.	.	.	.	.	.	.	.	.	8qqee/	.
4.AA/	.	2.ryy	(4B/	.	(4d/	.	(4b\	.	(4dd\	.
.	.	.	4A/)	.	4c#/)	.	4a\)	.	4cc#\)	.
8Gn\L	.	.	.	.	.	.	.	.	.	.
8E\	.	.	4r	.	4r	.	4r	.	4r	.
8C#\J	.	.	.	.	.	.	.	.	.	.
!	!	!	!	!	!	!	!LO:LB:g=original	!	!	!
=53	=53	=53	=53	=53	=53	=53	=53	=53	=53	=53
!	!	!	!LO:TX:a:t=4	!	!LO:TX:a:t=4	!	!LO:TX:a:t=4	!	!	!
4D/	.	(16dd\KL	0.r	.	0.r	.	0.r	.	4r	.
.	.	8.a\J)	.	.	.	.	.	.	.	.
4D/	.	(16ff#\KL	.	.	.	.	.	.	(16dd\KL	.
.	.	8.dd\J)	.	.	.	.	.	.	8.a\J)	.
4D/	.	(16aa\KL	.	.	.	.	.	.	(16ff#\KL	.
.	.	8.ff#\J)	.	.	.	.	.	.	8.dd\J)	.
=54	=54	=54	=54	=54	=54	=54	=54	=54	=54	=54
.	.	8qqgg/	.	.	.	.	.	.	8qqee/	.
4r	.	4ff#\	.	.	.	.	.	.	4dd\	.
8A|/L	.	4ee\	.	.	.	.	.	.	4cc#\	.
8E|/	.	.	.	.	.	.	.	.	.	.
8C#|/	.	4r	.	.	.	.	.	.	4r	.
8AA|/J	.	.	.	.	.	.	.	.	.	.
=55	=55	=55	=55	=55	=55	=55	=55	=55	=55	=55
4AA/	.	(16ee\KL	.	.	.	.	.	.	4r	.
.	.	8.a\J)	.	.	.	.	.	.	.	.
4r	.	(16gg\KL	.	.	.	.	.	.	(16ee\KL	.
.	.	8.ee\J)	.	.	.	.	.	.	8.a\J)	.
4r	.	(16bb\KL	.	.	.	.	.	.	(16gg\KL	.
.	.	8.gg\J)	.	.	.	.	.	.	8.ee\J)	.
=56	=56	=56	=56	=56	=56	=56	=56	=56	=56	=56
.	.	16qqaa/LL	.	.	.	.	.	.	.	.
.	.	16qqgg/	.	.	.	.	.	.	.	.
.	.	16qqff#/JJ	.	.	.	.	.	.	8qqff#/	.
4r	.	4gg\	.	.	.	.	.	.	4ee\	.
8d|\L	.	4ff#\	.	.	.	.	.	.	4dd\	.
8A|\	.	.	.	.	.	.	.	.	.	.
8F#|\	.	4r	.	.	.	.	.	.	4r	.
8D|\J	.	.	.	.	.	.	.	.	.	.
!	!	!	!	!	!	!	!	!	!LO:LB:g=original	!
=57	=57	=57	=57	=57	=57	=57	=57	=57	=57	=57
4G\	.	16bb\LL	4g/	.	4g/	.	2.b\	.	4r	.
.	.	16gg\J	.	.	.	.	.	.	.	.
.	.	8qqff#/	.	.	.	.	.	.	.	.
.	.	8ee\J	.	.	.	.	.	.	.	.
4GG/	.	16ee\LL	4G/	.	4G/	.	.	.	[2ee\	.
.	.	16dd\	.	.	.	.	.	.	.	.
.	.	16ee\	.	.	.	.	.	.	.	.
.	.	16ff#\JJ	.	.	.	.	.	.	.	.
4G\	.	16gg\LL	4g/	.	4g/	.	.	.	.	.
.	.	16bb\	.	.	.	.	.	.	.	.
.	.	16aa\	.	.	.	.	.	.	.	.
.	.	16gg\JJ	.	.	.	.	.	.	.	.
!LO:LB:g=original	!	!	!	!	!	!	!	!	!	!
=58	=58	=58	=58	=58	=58	=58	=58	=58	=58	=58
4F#\	.	16aa\LL	4f#/	.	4f#/	.	2.a/	.	8ee\L]	.
.	.	16ff#\J	.	.	.	.	.	.	.	.
.	.	8qqee/	.	.	.	.	.	.	.	.
.	.	8dd\J	.	.	.	.	.	.	8ff#\J	.
.	.	.	.	.	.	.	.	.	8qqee/	.
4FF#/	.	16dd\LL	4f#/	.	4f#/	.	.	.	2dd\	.
.	.	16cc#\	.	.	.	.	.	.	.	.
.	.	16dd\	.	.	.	.	.	.	.	.
.	.	16ee\JJ	.	.	.	.	.	.	.	.
4F#\	.	16ff#\LL	4f#/	.	4f#/	.	.	.	.	.
.	.	16aa\	.	.	.	.	.	.	.	.
.	.	16gg\	.	.	.	.	.	.	.	.
.	.	16ff#\JJ	.	.	.	.	.	.	.	.
=59	=59	=59	=59	=59	=59	=59	=59	=59	=59	=59
.	.	8qqaa/	.	.	.	.	.	.	.	.
4C#/	.	4.gg\	4c#/	.	4c#/	.	2.a/	.	4.eeT\	.
4AA/	.	.	4A/	.	4A/	.	.	.	.	.
.	.	16ff#\LL	.	.	.	.	.	.	(16dd\LL	.
.	.	16ee\JJ	.	.	.	.	.	.	16cc#\JJ	.
4D/	.	8ff#\L	4d/	.	4d/	.	.	.	8dd\L)	.
.	.	8ff#\J	.	.	.	.	.	.	8dd|\J	.
!	!	!	!LO:LB:g=original	!	!	!	!	!	!	!
=60	=60	=60	=60	=60	=60	=60	=60	=60	=60	=60
.	.	.	.	.	.	.	.	.	8qqee/	.
4A\	.	4ff#t\	4a/	.	4a/	.	2.aT/	.	4dd\	.
4AA/	.	8ee\L	4A/	.	4A/	.	.	.	4cc#\	.
.	.	8a\J	.	.	.	.	.	.	.	.
4r	.	(16ee\LL	4r	.	4r	.	.	.	(16cc#\LL	.
.	.	16gg\)	.	.	.	.	.	.	16ee\)	.
.	.	(16ff#\	.	.	.	.	.	.	(16dd\	.
.	.	16aa\JJ)	.	.	.	.	.	.	16ff#\JJ)	.
=61	=61	=61	=61	=61	=61	=61	=61	=61	=61	=61
.	.	8qqaa/	.	.	.	.	.	.	8qqff#/	.
4C#/	.	4.gg\	4c#/	.	4c#/	.	2.a/	.	4.ee\	.
4AA/	.	.	4A/	.	4A/	.	.	.	.	.
.	.	16ff#\LL	.	.	.	.	.	.	(16dd\LL	.
.	.	16ee\JJ	.	.	.	.	.	.	16cc#\JJ	.
4D/	.	(16ff#\LL	4d/	.	4d/	.	.	.	8dd\L)	.
.	.	16dd\)	.	.	.	.	.	.	.	.
.	.	(16aa\	.	.	.	.	.	.	8dd|\J	.
.	.	16ff#\JJ)	.	.	.	.	.	.	.	.
=62	=62	=62	=62	=62	=62	=62	=62	=62	=62	=62
.	.	.	.	.	.	.	.	.	8qqee/	.
4r	.	8.ff#\L	4a\	.	4a/	.	2a/	.	4dd\	.
.	.	16aa\Jk	.	.	.	.	.	.	.	.
.	.	8qqff#/	.	.	.	.	.	.	.	.
4A\	.	4ee\	4A/	.	4A/	.	.	.	4cc#\	.
4G\	.	4r	4r	.	4r	.	4r	.	4r	.
!LO:LB:g=original	!	!	!	!	!LO:LB:g=original	!	!	!	!	!
=63	=63	=63	=63	=63	=63	=63	=63	=63	=63	=63
!	!	!	!	!	!	!	!LO:TX:a:t=6	!	!LO:TX:a:t=1	!
4F#\	.	16aa\LL	(>8A'/L	.	8d|/L	.	0.r	.	2.r	.
.	.	16ff#\J	.	.	.	.	.	.	.	.
.	.	8qqee/	.	.	.	.	.	.	.	.
.	.	8dd\J	8A'/	.	(8d'/	.	.	.	.	.
!	!	!LO:TUP:a:problem:klamra łukowa	!	!	!	!	!	!	!	!
4F#\	.	24dd\LL	8A'/	.	8d'/	.	.	.	.	.
.	.	24ee\	.	.	.	.	.	.	.	.
.	.	24dd\JJ	.	.	.	.	.	.	.	.
!	!	!LO:TUP:a:problem:klamra łukowa	!	!	!	!	!	!	!	!
.	.	24ff#\LL	8A'/	.	8d'/	.	.	.	.	.
.	.	24gg\	.	.	.	.	.	.	.	.
.	.	24ff#\JJ	.	.	.	.	.	.	.	.
!	!	!LO:TUP:a:problem:klamra łukowa	!	!	!	!	!	!	!	!
4F#\	.	24aa\LL	8A'/	.	8d'/	.	.	.	.	.
.	.	24bb\	.	.	.	.	.	.	.	.
.	.	24aa\JJ	.	.	.	.	.	.	.	.
!	!	!LO:TUP:a:problem:klamra łukowa	!	!	!	!	!	!	!	!
.	.	24cccX\LL	8A'/J)	.	8d'/J)	.	.	.	.	.
.	.	24ddd\	.	.	.	.	.	.	.	.
.	.	24ccc\JJ	.	.	.	.	.	.	.	.
=64	=64	=64	=64	=64	=64	=64	=64	=64	=64	=64
4F#\	.	8.bb\L	8B|/L	.	8d'|/L	.	.	.	(16dd\LL	.
.	.	.	.	.	.	.	.	.	16b\J)	.
.	.	.	.	.	.	.	.	.	8qqa/	.
.	.	.	8B'/	.	(8d'/	.	.	.	8g\J	.
.	.	16aa\Jk	.	.	.	.	.	.	.	.
.	.	8qqaa/	.	.	.	.	.	.	.	.
!	!	!	!	!	!	!	!	!	!LO:LB:g=original	!
!	!	!	!	!	!	!	!	!	!LO:TUP:a:problem:klamra łukowa	!
4F#\	.	2bb\	8B'/	.	8d'/	.	.	.	24g\LL	.
.	.	.	.	.	.	.	.	.	24a\	.
.	.	.	.	.	.	.	.	.	24g\JJ	.
!	!	!	!	!	!	!	!	!	!LO:TUP:a:problem:klamra łukowa	!
.	.	.	8B'/	.	8d'/	.	.	.	24b\LL	.
.	.	.	.	.	.	.	.	.	24ccn\	.
.	.	.	.	.	.	.	.	.	24b\JJ	.
!	!	!	!	!	!	!	!	!	!LO:TUP:a:problem:klamra łukowa	!
4F#\	.	.	8B'/	.	8d'/	.	.	.	24dd\LL	.
.	.	.	.	.	.	.	.	.	24ee\	.
.	.	.	.	.	.	.	.	.	24dd\JJ	.
!	!	!	!	!	!	!	!	!	!LO:TUP:a:problem:klamra łukowa	!
.	.	.	8B'/J	.	8d'/J)	.	.	.	24ffn\LL	.
.	.	.	.	.	.	.	.	.	24gg\	.
.	.	.	.	.	.	.	.	.	24ff\JJ	.
=65	=65	=65	=65	=65	=65	=65	=65	=65	=65	=65
.	.	.	.	.	.	.	.	.	8qqff#/	.
4G#X\	.	16bb\LL	8B/L	.	8e|/L	.	.	.	8.ee\L	.
.	.	16gg#X\J	.	.	.	.	.	.	.	.
.	.	8qqff#/	.	.	.	.	.	.	.	.
.	.	8ee\J	8B/	.	(8e'/	.	.	.	.	.
.	.	.	.	.	.	.	.	.	16dd#X\Jk	.
.	.	.	.	.	.	.	.	.	16qqdd#/LL	.
.	.	.	.	.	.	.	.	.	16qqff#/JJ	.
!	!	!LO:TUP:a:problem:klamra łukowa	!	!	!	!	!	!	!	!
4G#\	.	24ee\LL	8B/	.	8e'/	.	.	.	2ee\	.
.	.	24ff#\	.	.	.	.	.	.	.	.
.	.	24ee\JJ	.	.	.	.	.	.	.	.
!	!	!LO:TUP:a:problem:klamra łukowa	!	!	!	!	!	!	!	!
.	.	24gg#X\LL	8B/	.	8e'/	.	.	.	.	.
.	.	24aa\	.	.	.	.	.	.	.	.
.	.	24gg#\JJ	.	.	.	.	.	.	.	.
!	!	!LO:TUP:a:problem:klamra łukowa	!	!	!	!	!	!	!	!
4G#\	.	24bb\LL	8B/	.	8e'/	.	.	.	.	.
.	.	24ccc#\	.	.	.	.	.	.	.	.
.	.	24bb\JJ	.	.	.	.	.	.	.	.
.	.	8ddd\	8B/J	.	8e'/J)	.	.	.	.	.
=66	=66	=66	=66	=66	=66	=66	=66	=66	=66	=66
!	!	!	!	!	!LO:TX:t=P:problem:mixed beam	!	!	!	!	!
.	.	8qqddd/	.	.	.	.	.	.	8qqff#/	.
4A\	.	8.ccc#\L	8c#/L	.	(8e'/L	.	.	.	(16ee\LL	.
.	.	.	.	.	.	.	.	.	16cc#X\J)	.
.	.	.	.	.	.	.	.	.	8qqb/	.
.	.	.	8c#/	.	8e'/	.	.	.	8a\J	.
.	.	16bb\Jk	.	.	.	.	.	.	.	.
!	!	!	!	!	!	!	!	!	!LO:TUP:a:problem:klamra łukowa	!
4A\	.	2ccc#\	8c#/	.	8e'/	.	.	.	24a\LL	.
.	.	.	.	.	.	.	.	.	24b\	.
.	.	.	.	.	.	.	.	.	24a\JJ	.
!	!	!	!	!	!	!	!	!	!LO:TUP:a:problem:klamra łukowa	!
.	.	.	8c#/	.	8e'/)	.	.	.	24cc#\LL	.
.	.	.	.	.	.	.	.	.	24dd\	.
.	.	.	.	.	.	.	.	.	24cc#\JJ	.
!	!	!	!	!	!	!	!	!	!LO:TUP:a:problem:klamra łukowa	!
4A\	.	.	8e/	.	(8cc#'\	.	.	.	24ee\LL	.
.	.	.	.	.	.	.	.	.	24ff#\	.
.	.	.	.	.	.	.	.	.	24ee\JJ	.
!	!	!	!	!	!	!	!	!	!LO:TUP:a:problem:klamra łukowa	!
.	.	.	8e/J	.	8cc#'\J)	.	.	.	24gg\LL	.
.	.	.	.	.	.	.	.	.	24aa\	.
.	.	.	.	.	.	.	.	.	24gg\JJ	.
!LO:LB:g=original	!	!	!LO:LB:g=original	!	!	!	!	!	!	!
=67	=67	=67	=67	=67	=67	=67	=67	=67	=67	=67
!	!	!	!LO:TX:t=P:problem:mixed beam	!	!	!	!	!	!	!
.	.	.	.	.	.	.	.	.	8qqgg/	.
!	!	!	!	!	!	!LO:DY:a	!	!	!	!
4D/	.	2.ryy	(16f#/LL	.	(16a\LL	f	1.r	.	4ff#\	.
.	.	.	16dd\J)	.	16ff#\J)	.	.	.	.	.
.	.	.	8qqee/	.	8qqgg/	.	.	.	.	.
.	.	.	8dd\J	.	8ff#\J	.	.	.	.	.
4r	.	.	(16dd\LL	.	(16ff#\LL	.	.	.	4r	.
.	.	.	16cc#\	.	16ee\	.	.	.	.	.
.	.	.	16b\	.	16dd\	.	.	.	.	.
.	.	.	16a\JJ)	.	16cc#\JJ	.	.	.	.	.
4D/	.	.	8g/L	.	8b\L)	.	.	.	4r	.
.	.	.	8f#|/J	.	8a|\J	.	.	.	.	.
=68	=68	=68	=68	=68	=68	=68	=68	=68	=68	=68
!	!	!	!LO:TX:t=P:problem:mixed beam	!	!	!	!	!	!LO:TX:a:t=1	!
4A\	.	2.ryy	(16e/LL	.	(16g\LL	.	.	.	2.r	.
.	.	.	16cc#\J)	.	16ee\J)	.	.	.	.	.
.	.	.	8qqdd/	.	8qqff#/	.	.	.	.	.
.	.	.	8cc#\J	.	[8ee\J	.	.	.	.	.
4r	.	.	(16cc#\LL	.	(16ee\LL]	.	.	.	.	.
.	.	.	16b\	.	16dd\	.	.	.	.	.
.	.	.	16a\	.	16cc#\	.	.	.	.	.
.	.	.	16g\JJ	.	16b\JJ)	.	.	.	.	.
4AA/	.	.	8f#/L)	.	8a/L	.	.	.	.	.
.	.	.	8e|/J	.	8g|/J	.	.	.	.	.
!	!	!	!	!	!LO:LB:g=original	!	!	!	!LO:LB:g=original	!
=69	=69	=69	=69	=69	=69	=69	=69	=69	=69	=69
.	.	.	.	.	8qqg/	.	.	.	.	.
!	!	!	!	!	!	!	!LO:TX:t=P:problem:mixed beam	!	!	!
!	!	!	!	!	!	!	!LO:TX:b:i:t=Solo	!	!	!
4D/	.	2.ryy	4d/	p	4f#/	.	(16f#/LL	.	(16a\LL	.
.	.	.	.	.	.	p	16dd\J)	.	16ff#\J)	.
!	!	!	!	!	!	!	!	!	!LO:TX:b:i:t=Solo	!
.	.	.	.	.	.	.	.	.	8qqaa/	.
.	.	.	.	.	.	.	8dd/J	.	8ff#\J	.
4r	.	.	4r	.	4r	.	(16dd\LL	.	(16ff#\LL	.
.	.	.	.	.	.	.	16cc#\	.	16ee\	.
.	.	.	.	.	.	.	16b\	.	16dd\	.
.	.	.	.	.	.	.	16a\JJ	.	16cc#\JJ	.
4r	.	.	4d/	.	4d/	.	8g/L)	.	8b\L)	.
.	.	.	.	.	.	.	8f#|/J	.	8a|\J	.
!	!	!	!	!	!	!	!LO:LB:g=original	!	!	!
=70	=70	=70	=70	=70	=70	=70	=70	=70	=70	=70
!LO:TX:t=P:problem:skreślenia i poprawki	!	!	!	!	!	!	!LO:TX:t=P:problem:mixed beam	!	!	!
4AA/	.	2.aa\	4A/	.	4A/	.	(16e/LL	.	(16g\LL	.
.	.	.	.	.	.	.	16cc#\J)	.	16ee\J)	.
.	.	.	.	.	.	.	.	.	8qqff#/	.
.	.	.	.	.	.	.	8cc#/J	.	8ee\J	.
4r	.	.	4r	.	4r	.	(16cc#\LL	.	(16ee\LL	.
.	.	.	.	.	.	.	16b\	.	16dd\	.
.	.	.	.	.	.	.	16a\	.	16cc#\	.
.	.	.	.	.	.	.	16g\JJ	.	16b\JJ)	.
4r	.	.	4A/	.	4A/	.	8f#/L)	.	8a\L	.
.	.	.	.	.	.	.	8e|/J	.	8g|\J	.
=71	=71	=71	=71	=71	=71	=71	=71	=71	=71	=71
.	.	.	.	.	.	.	.	.	8qqg/	.
4D/	.	16aa\LL	4d/	.	4d/	.	4d/	.	4f#/	.
.	.	16dd\	.	.	.	.	.	.	.	.
.	.	16ee\	.	.	.	.	.	.	.	.
.	.	16ff#\JJ	.	.	.	.	.	.	.	.
4r	.	16gg\LL	2eT/	.	2eT/	.	4r	.	4r	.
.	.	16ff#\	.	.	.	.	.	.	.	.
.	.	16gg\	.	.	.	.	.	.	.	.
.	.	16aa\JJ	.	.	.	.	.	.	.	.
4r	.	16bb\LL	.	.	.	.	4r	.	4r	.
.	.	16aa\	.	.	.	.	.	.	.	.
.	.	16bb\	.	.	.	.	.	.	.	.
.	.	16ccc#\JJ	.	.	.	.	.	.	.	.
=72	=72	=72	=72	=72	=72	=72	=72	=72	=72	=72
!	!	!	!	!	!	!	!LO:TX:a:t=5	!	!	!
8D/L	.	2.ddd\	8d/L	.	8f#/L	.	0.r	.	4r	.
8E/	.	.	8e/	.	8g/	.	.	.	.	.
8F#/	.	.	8f#/	.	8a/	.	.	.	2dd\	.
8G/	.	.	8g/	.	8b/	.	.	.	.	.
8F#/	.	.	8f#/	.	8a/	.	.	.	.	.
8E/J	.	.	8e/J	.	8g/J	.	.	.	.	.
=73	=73	=73	=73	=73	=73	=73	=73	=73	=73	=73
4D/	.	16ddd\LL	4d/	.	4f#/	.	.	.	4.dd\	.
.	.	16aa\	.	.	.	.	.	.	.	.
.	.	16ff#\	.	.	.	.	.	.	.	.
.	.	16dd\JJ	.	.	.	.	.	.	.	.
.	.	8qqdd/	.	.	.	.	.	.	.	.
4A\	.	2eeT\	4a\	.	4a/	.	.	.	.	.
.	.	.	.	.	.	.	.	.	8b\	.
4AA/	.	.	4A/	.	4A/	.	.	.	4cc#t\	.
!LO:LB:g=original	!	!	!LO:LB:g=original	!	!	!	!	!	!	!
=74	=74	=74	=74	=74	=74	=74	=74	=74	=74	=74
.	.	.	.	.	.	.	.	.	16qqcc#/LL	.
.	.	.	.	.	.	.	.	.	16qqee/JJ	.
4D/	.	16ff#\LL	4d/	.	4d/	.	.	.	4dd\	.
.	.	16dd\	.	.	.	.	.	.	.	.
.	.	16ee\	.	.	.	.	.	.	.	.
.	.	16ff#\JJ	.	.	.	.	.	.	.	.
4r	.	16gg\LL	2GT/	.	4r	.	.	.	4r	.
.	.	16ff#\	.	.	.	.	.	.	.	.
.	.	16gg\	.	.	.	.	.	.	.	.
.	.	16aa\JJ	.	.	.	.	.	.	.	.
4r	.	16bb\LL	.	.	4r	.	.	.	4r	.
.	.	16aa\	.	.	.	.	.	.	.	.
.	.	16bb\	.	.	.	.	.	.	.	.
.	.	16ccc#\JJ	.	.	.	.	.	.	.	.
!	!	!	!	!	!	!	!	!	!LO:LB:g=original	!
=75	=75	=75	=75	=75	=75	=75	=75	=75	=75	=75
!	!	!	!	!	!LO:TX:a:t=2	!	!	!	!	!
8D/L	.	2.ddd\	8r	.	1.r	.	.	.	4r	.
8E/	.	.	8G/L	.	.	.	.	.	.	.
8F#/	.	.	8A/	.	.	.	.	.	2dd\	.
8G/	.	.	8B/	.	.	.	.	.	.	.
8F#/	.	.	8A/	.	.	.	.	.	.	.
8E/J	.	.	8G/J	.	.	.	.	.	.	.
=76	=76	=76	=76	=76	=76	=76	=76	=76	=76	=76
4D/	.	32ddd\LLL	4f#/	.	.	.	2.r	.	4.dd\	.
.	.	32ccc#\	.	.	.	.	.	.	.	.
.	.	32bb\	.	.	.	.	.	.	.	.
.	.	32aa\JJJ	.	.	.	.	.	.	.	.
.	.	32gg\LLL	.	.	.	.	.	.	.	.
.	.	32ff#\	.	.	.	.	.	.	.	.
.	.	32ee\	.	.	.	.	.	.	.	.
.	.	32dd\JJJ	.	.	.	.	.	.	.	.
.	.	8qqdd/	.	.	.	.	.	.	.	.
4A\	.	2eeT\	4r	.	.	.	.	.	.	.
.	.	.	.	.	.	.	.	.	8b\	.
4AA/	.	.	4r	.	.	.	.	.	4cc#t\	.
=77	=77	=77	=77	=77	=77	=77	=77	=77	=77	=77
4D/	.	4dd\	4r	.	(16dd\KL	.	4r	.	(16dd\KL	.
.	.	.	.	.	8.a\J)	.	.	.	8.a\J)	.
!	!	!	!	!LO:DY:a	!	!	!	!LO:DY:a	!LO:TX:b:i:t=Tutti	!
4D/	.	4r	(16dd\KL	f	(16ff#\KL	.	(16dd\KL	f	(16ff#\KL	.
.	.	.	8.a\J)	.	8.dd\J)	.	8.a\J)	.	8.dd\J)	.
4D/	.	4r	(16ff#\KL	.	16aa\KL	.	(16ff#\KL	.	(16aa\KL	.
.	.	.	8.dd\J)	.	8.ff#\J	.	8.dd\J)	.	8.ff#\J)	.
=78	=78	=78	=78	=78	=78	=78	=78	=78	=78	=78
.	.	.	8qqee/	.	8qqgg/	.	8qqee/	.	8qqgg/	.
4AA/	.	2.ryy	4dd\	.	4ff#\	.	4dd\	.	4ff#\	.
8r	.	.	4cc#\	.	4ee\	.	4cc#\	.	4ee\	.
8A\L	.	.	.	.	.	.	.	.	.	.
8E\	.	.	4r	.	4r	.	4r	.	4r	.
8D\J	.	.	.	.	.	.	.	.	.	.
!	!	!	!	!	!LO:LB:g=original	!	!	!	!	!
=79	=79	=79	=79	=79	=79	=79	=79	=79	=79	=79
4C#/	.	2.ryy	4r	.	(16ee\KL	.	4r	.	(16ee\KL	.
.	.	.	.	.	8.a\J)	.	.	.	8.a\J)	.
4C#/	.	.	(16ee\KL	.	(16gg\KL	.	(16ee\KL	.	(16gg\KL	.
.	.	.	8.a\J)	.	8.ee\J)	.	8.a\J)	.	8.ee\J)	.
4C#/	.	.	(16gg\KL	.	(16bb\KL	.	(16gg\KL	.	(16bb\KL	.
.	.	.	8.ee\J)	.	8.gg\J)	.	8.ee\J)	.	8.gg\J)	.
!LO:LB:g=original	!	!	!	!	!	!	!LO:LB:g=original	!	!	!
=80	=80	=80	=80	=80	=80	=80	=80	=80	=80	=80
!LO:TX:t=P:problem:mixed beam	!	!	!	!	!	!	!	!	!	!
.	.	.	8qqff#/	.	8qqaa/	.	8qqff#/	.	8qqaa/	.
8D\L	.	2.ryy	(4ee\	.	(4gg\	.	(4ee\	.	(4gg\	.
8E\	.	.	.	.	.	.	.	.	.	.
8F#\	.	.	4dd\)	.	4ff#\)	.	4dd\)	.	4ff#\)	.
8G\	.	.	.	.	.	.	.	.	.	.
8A\	.	.	4cc#|\	.	4ee|\	.	4cc#|\	.	4ee|\	.
8AA/J	.	.	.	.	.	.	.	.	.	.
=81	=81	=81	=81	=81	=81	=81	=81	=81	=81	=81
4D/	.	2.ryy	(16dd\LL	.	(16ff#\LL	.	(16dd\LL	.	(16ff#\LL	.
.	.	.	16ff#\J)	.	16aa\J)	.	16ff#\J)	.	16aa\J)	.
.	.	.	8ff#|\J	.	8aa|\J	.	8ff#|\J	.	8aa|\J	.
4C#/	.	.	8r	.	(16a\LL	.	8r	.	(16a\LL	.
.	.	.	.	.	16b\	.	.	.	16b\	.
.	.	.	(16a\LL	.	16cc#\	.	(16a\LL	.	16cc#\	.
.	.	.	16b\JJ	.	16dd\JJ	.	16b\JJ	.	16dd\JJ	.
4AA/	.	.	16cc#\LL	.	16ee\LL	.	16cc#\LL	.	16ee\LL	.
.	.	.	16dd\	.	16ff#\	.	16dd\	.	16ff#\	.
.	.	.	16ee\)	.	16gg\)	.	16ee\)	.	16gg\)	.
.	.	.	16cc#|\JJ	.	16ee|\JJ	.	16cc#|\JJ	.	16ee|\JJ	.
!	!	!	!LO:LB:g=original	!	!	!	!	!	!LO:LB:g=original	!
=82	=82	=82	=82	=82	=82	=82	=82	=82	=82	=82
!	!	!	!	!	!	!	!LO:TX:a:t=1	!	!LO:TX:a:t=1	!
4D/	.	2.ryy	(16dd\LL	p	(16ff#\LL	.	2.r	.	2.r	.
.	.	.	16ff#\J)	.	16aa\J)	.	.	.	.	.
.	.	.	8ff#|\J	.	8aa|\J	p	.	.	.	.
4C#/	.	.	8r	.	(16a\LL	.	.	.	.	.
.	.	.	.	.	16b\	.	.	.	.	.
.	.	.	(16a\LL	.	16cc#\	.	.	.	.	.
.	.	.	16b\JJ	.	16dd\JJ	.	.	.	.	.
4AA/	.	.	16cc#\LL	.	16ee\LL	.	.	.	.	.
.	.	.	16dd\	.	16ff#\	.	.	.	.	.
.	.	.	16ee\)	.	16gg\)	.	.	.	.	.
.	.	.	16cc#|\JJ	.	16ee|\JJ	.	.	.	.	.
=83	=83	=83	=83	=83	=83	=83	=83	=83	=83	=83
!	!	!	!	!	!LO:TUP:a	!	!	!	!LO:TUP:a:problem:klamra łukowa	!
8D\L	.	2.ryy	(8dd\L	f	(24ff#\LL	f	(8dd\L	.	24ff#\LL	.
.	.	.	.	.	24ee\	.	.	.	24ee\	.
.	.	.	.	.	24ff#\JJ	.	.	.	24ff#\JJ	.
*	*	*	*	*	*Xtuplet	*	*	*	*	*
!	!	!	!	!	!	!	!	!	!LO:TUP:a:problem:klamra łukowa	!
8G\J	.	.	16ee\L)	.	24gg\LL	.	16ee\L)	.	24gg\LL	.
.	.	.	.	.	24ff#\)	.	.	.	24ff#\	.
.	.	.	16b|\JJ	.	.	.	16b|\JJ	.	.	.
.	.	.	.	.	24ee\JJ	.	.	.	24ee\JJ	.
.	.	.	8qqb/	.	8qqdd/	.	.	.	8qqdd/	.
4A\	.	.	2cc#t\	.	2eeT\	.	2cc#t\	.	2eeT\	.
4AA/	.	.	.	.	.	.	.	.	.	.
!	!	!	!	!	!LO:LB:g=original	!	!	!	!	!
=84	=84	=84	=84	=84	=84	=84	=84	=84	=84	=84
.	.	.	.	.	8qqee/	.	.	.	.	.
8D\L	.	2.ryy	8dd\	.	[2.dd\	.	8dd\	.	[2.dd\	.
8G\	.	.	4b\	.	.	.	4b\	.	.	.
8G\	.	.	.	.	.	.	.	.	.	.
8F#\	.	.	4a\	.	.	.	4a/	.	.	.
8F#\	.	.	.	.	.	.	.	.	.	.
8E\J	.	.	8g\	.	.	.	8g/	.	.	.
=85	=85	=85	=85	=85	=85	=85	=85	=85	=85	=85
4D/	.	2.ryy	8f#/	.	8dd\]	.	8f#/	.	4dd\]	.
.	.	.	4g/	p	4b\	p	8r	.	.	.
4D/	.	.	.	.	.	.	4r	.	4r	.
.	.	.	4f#/	.	4a\	.	.	.	.	.
4D/	.	.	.	.	.	.	4r	.	4r	.
.	.	.	8e/	.	8g\	.	.	.	.	.
!	!	!	!	!	!	!	!LO:LB:g=original	!	!	!
=86	=86	=86	=86	=86	=86	=86	=86	=86	=86	=86
4D/	.	2.ryy	8d/	.	8f#/	.	8r	.	8r	.
.	.	.	4G/	f	4B/	.	4g/	.	4b\	.
4D/	.	.	.	.	.	.	.	.	.	.
.	.	.	4f#/	.	4A/	f	4f#/	.	4a\	.
4D/	.	.	.	.	.	.	.	.	.	.
.	.	.	8e/	.	8G/	.	8e/	.	8g/	.
=87	=87	=87	=87	=87	=87	=87	=87	=87	=87	=87
2D/	.	2.ryy	4e/	.	(4g/	.	4e/	.	(4g/	.
.	.	.	4d/	.	4f#/)	.	4d/	.	4f#/)	.
4r	.	.	4r	.	4r	.	4r	.	4r	.
!LO:TX:b:i:t=Fine.	!	!	!LO:TX:b:i:t=Fine.	!	!LO:TX:b:i:t=Fine.	!	!LO:TX:b:i:t=Fine.	!	!LO:TX:b:i:t=Fine.	!
==	==	==	==	==	==	==	==	==	==	==
*-	*-	*-	*-	*-	*-	*-	*-	*-	*-	*-
!!!system-decoration: [(s1,s2)][(s3,s4)][(s5,s6)]
!!!RDF**kern: | = vertical stroke
!!!RDF**dynam: p = pia.
!!!RDF**dynam: mf = mezo for:
!!!RDF**dynam: f = for
!!!RDF**kern: > = above
!!!RDF**kern: < = below
!!!ENC: Mateusz Solarz
!!!END: 2022-04-01
!!!ENC: Leszek Kubiak
!!!END: 2022-04-11
